public/img_easetouseicon_1.svg

<svg width="78" height="74" viewBox="0 0 78 74" fill="none" xmlns="http://www.w3.org/2000/svg">
<g clip-path="url(#clip0_9_47916)">
<mask id="mask0_9_47916" style="mask-type:luminance" maskUnits="userSpaceOnUse" x="0" y="0" width="78" height="74">
<path d="M78 0H0V74H78V0Z" fill="white"/>
</mask>
<g mask="url(#mask0_9_47916)">
<path fill-rule="evenodd" clip-rule="evenodd" d="M46.9081 33.8863C46.8555 34.411 46.641 34.7895 46.2031 35.0862L58.2749 41.9374C58.7084 41.6407 58.9273 41.2536 58.9798 40.7375V33.7272L46.9081 26.876V33.8863ZM58.866 54.4572L46.7942 47.6059C46.8774 47.7608 46.8906 47.8038 46.9125 47.9844V55.0206L58.9842 61.8718V54.8356C58.9623 54.6507 58.9623 54.612 58.866 54.4572Z" fill="#035BE8"/>
<path fill-rule="evenodd" clip-rule="evenodd" d="M47.1648 34.9572L58.2076 41.2192C58.3083 41.0687 58.3739 40.9053 58.3958 40.6859V34.0669L47.4976 27.8953V33.9379C47.4625 34.3207 47.3443 34.6605 47.1648 34.9572ZM58.2776 42.5224C58.1769 42.5224 58.0762 42.4966 57.9755 42.4449L45.9038 35.5937C45.7374 35.4948 45.6191 35.3099 45.6016 35.112C45.6016 34.9142 45.7023 34.7207 45.8687 34.6088C46.1533 34.4153 46.2759 34.196 46.3022 33.8605V26.876C46.3022 26.6738 46.4204 26.4717 46.6043 26.3685C46.7926 26.2652 47.0115 26.2652 47.1911 26.3685L59.2803 33.2197C59.4686 33.3229 59.5693 33.5164 59.5693 33.7272V40.7375C59.5168 41.473 59.1971 42.0278 58.6104 42.4191C58.5097 42.4837 58.3915 42.5224 58.2776 42.5224ZM47.4976 54.6808L58.3958 60.8525V54.8657L47.4976 48.6854V54.6808ZM58.9826 62.4524C58.8819 62.4524 58.7812 62.4266 58.6804 62.375L46.6087 55.5238C46.4204 55.4205 46.3066 55.2313 46.3066 55.0206V47.9844C46.1533 47.7565 46.1752 47.4253 46.3766 47.2318C46.5605 47.0382 46.8495 46.9651 47.0816 47.0984L59.1533 53.9497C59.2409 53.9927 59.3066 54.0572 59.3548 54.1389C59.5387 54.3926 59.5562 54.5432 59.5737 54.7625V61.8718C59.5737 62.0825 59.473 62.2717 59.2847 62.375C59.184 62.4309 59.0877 62.4524 58.987 62.4524H58.9826Z" fill="#035BE8"/>
<path fill-rule="evenodd" clip-rule="evenodd" d="M77.4114 37.3485L65.3353 30.5015L46.9102 26.876L58.982 33.7272L77.4114 37.3485Z" fill="#035BE8"/>
<path fill-rule="evenodd" clip-rule="evenodd" d="M59.1976 33.1677L73.9753 36.075L65.1174 31.0517L50.3397 28.1486L59.1976 33.1677ZM77.4081 37.933C77.3731 37.933 77.3205 37.9287 77.2899 37.9244L58.8604 34.2988C58.7904 34.2902 58.7378 34.2644 58.6722 34.2343L46.6004 27.3831C46.3465 27.2368 46.2326 26.9401 46.3333 26.6734C46.4516 26.4025 46.7186 26.2519 47.0208 26.3035L65.4502 29.9291C65.5027 29.9377 65.5684 29.9635 65.6166 29.9937L77.7058 36.8449C77.9598 36.9911 78.0605 37.2879 77.9598 37.5545C77.881 37.7824 77.6402 37.933 77.4081 37.933Z" fill="#035BE8"/>
<path fill-rule="evenodd" clip-rule="evenodd" d="M58.2754 41.9372L46.2037 35.0859L13.3994 53.687C12.4711 54.259 11.972 54.8525 11.3984 55.7514L23.4701 62.6026C24.0437 61.6951 24.5429 61.1102 25.4711 60.5382L58.2754 41.9328V41.9372Z" fill="#035BE8"/>
<path fill-rule="evenodd" clip-rule="evenodd" d="M12.235 55.554L23.2822 61.8203C23.7551 61.1364 24.2892 60.5773 25.1474 60.044L57.076 41.9332L46.1996 35.7616L13.6887 54.1949C13.0275 54.6035 12.6291 55.0164 12.2394 55.554H12.235ZM23.4661 63.1922C23.3654 63.1922 23.269 63.1621 23.1815 63.1148L11.0922 56.2636C10.9565 56.1819 10.8558 56.0529 10.8207 55.9023C10.7769 55.7475 10.8076 55.5884 10.8908 55.4507C11.4644 54.5476 12.0161 53.8594 13.0757 53.2014L45.8975 34.5874C46.0814 34.4799 46.296 34.4842 46.4843 34.5831L58.5735 41.4343C58.7618 41.5376 58.8756 41.7311 58.8756 41.9418C58.8756 42.1526 58.7574 42.3461 58.5735 42.4493L25.7736 61.0504C24.9154 61.5794 24.4775 62.1127 23.9915 62.917C23.8733 63.0976 23.6719 63.1965 23.4704 63.1965L23.4661 63.1922Z" fill="#035BE8"/>
<path fill-rule="evenodd" clip-rule="evenodd" d="M23.4652 62.6071L11.3935 55.7559C10.8724 56.6978 10.6229 57.4203 10.5703 58.4869V64.5855C10.601 65.2865 10.6885 65.7553 11.2096 66.2542L23.2989 73.1054C22.7603 72.6065 22.6771 72.1334 22.6421 71.4367V65.3381C22.699 64.2672 22.9661 63.5447 23.4696 62.6114L23.4652 62.6071Z" fill="#035BE8"/>
<path fill-rule="evenodd" clip-rule="evenodd" d="M11.6501 56.5728C11.3655 57.1577 11.1947 57.7168 11.1641 58.5167V64.5895C11.1947 65.2045 11.2648 65.497 11.637 65.841L22.0755 71.7461C22.0536 71.6515 22.0536 71.5611 22.0536 71.4708V65.3421C22.0886 64.3142 22.3251 63.5788 22.6972 62.8391L11.6501 56.5771V56.5728ZM23.3015 73.6943C23.1833 73.6943 23.0826 73.6685 22.9994 73.6169L10.9276 66.7657C10.1088 66.0131 10.0037 65.3206 9.96875 64.6196V58.4909C10.0388 57.2394 10.354 56.4136 10.8751 55.4846C10.9408 55.347 11.0765 55.2395 11.2298 55.1965C11.3961 55.1578 11.5713 55.175 11.7026 55.2567L23.7744 62.1036C24.0283 62.2541 24.1422 62.5595 24.0283 62.8305C23.5423 63.7207 23.2884 64.3573 23.2533 65.3679V71.4407C23.2752 72.06 23.354 72.3482 23.7043 72.6922C23.9276 72.8944 23.9583 73.2255 23.7744 73.4621C23.6562 73.6169 23.4723 73.6943 23.3015 73.6943Z" fill="#035BE8"/>
<path fill-rule="evenodd" clip-rule="evenodd" d="M52.5394 0.958999L19.7351 19.5644C19.4811 19.6676 19.3454 19.7149 19.1484 19.5428L31.2201 26.3941C31.439 26.5618 31.5704 26.5188 31.8068 26.4156L64.6068 7.81022C65.4475 7.37584 65.9335 7.26831 66.7742 7.74141L54.5273 0.769763C53.7873 0.425697 53.2312 0.606332 52.5394 0.958999Z" fill="#EFF3FA"/>
<path fill-rule="evenodd" clip-rule="evenodd" d="M20.6481 19.7235L31.5245 25.8866L64.3157 7.30274C64.412 7.25973 64.4996 7.20812 64.6003 7.16941L54.2275 1.27728C53.8421 1.09235 53.5006 1.13106 52.8351 1.47512L20.6481 19.7235ZM31.4939 27.0908C31.2925 27.0908 31.0735 27.0306 30.8546 26.8413L19.0675 20.1751C18.9799 20.1407 18.8661 20.0762 18.7654 19.9944C18.5333 19.8009 18.4807 19.4568 18.669 19.2074C18.8354 18.9536 19.1857 18.8805 19.4397 19.031H19.4528L52.244 0.451524C52.244 0.451524 52.2571 0.447224 52.2571 0.438622C52.9445 0.0945562 53.7502 -0.236608 54.7748 0.240784L67.0873 7.23393C67.372 7.39736 67.4727 7.75433 67.3063 8.03388C67.1399 8.31773 66.7677 8.40375 66.5006 8.24892H66.4787C65.892 7.90916 65.6205 7.95647 64.8805 8.33064L32.0937 26.9231C31.9405 26.9919 31.7391 27.0908 31.4895 27.0908H31.4939Z" fill="#035BE8"/>
<path fill-rule="evenodd" clip-rule="evenodd" d="M31.1028 19.0007L19.0267 12.1538L0.601562 36.6728L12.6733 43.524L31.1028 19.0007Z" fill="#EFF3FA"/>
<path fill-rule="evenodd" clip-rule="evenodd" d="M1.47771 36.5009L12.5074 42.7586L30.2319 19.1858L19.1847 12.9238L1.47771 36.5009ZM12.6738 44.1134C12.5731 44.1134 12.4724 44.0876 12.376 44.0316L0.304253 37.1804C0.151003 37.0987 0.0502953 36.9568 0.0152667 36.7977C-0.0153833 36.6342 0.0152667 36.4622 0.115974 36.3289L18.5411 11.8056C18.7294 11.5647 19.0621 11.4959 19.3161 11.6464L31.4053 18.4976C31.5411 18.5837 31.6593 18.7213 31.6943 18.8847C31.725 19.0439 31.6724 19.2202 31.5717 19.3535L13.1423 43.8725C13.0241 44.0273 12.8577 44.1091 12.6694 44.1091L12.6738 44.1134Z" fill="#035BE8"/>
<path fill-rule="evenodd" clip-rule="evenodd" d="M31.815 38.9137L64.615 20.304C65.39 19.8653 66.0949 19.1041 66.616 18.2396C67.1195 17.3665 67.4348 16.3945 67.4348 15.5086V9.41C67.4348 7.64667 66.1562 6.93273 64.6106 7.8101L31.8107 26.4155C31.4253 26.6348 31.1013 26.4542 31.1013 26.0155V19.0008L12.6719 43.5242L31.1013 47.1411V40.105C31.1013 39.6663 31.4253 39.1287 31.8107 38.9094L31.815 38.9137Z" fill="white"/>
<path fill-rule="evenodd" clip-rule="evenodd" d="M13.7156 43.1284L30.4987 46.4228V40.1049C30.4987 39.4598 30.9365 38.7243 31.5057 38.4018L64.3144 19.7964C64.9668 19.4222 65.6236 18.7513 66.0921 17.9384C66.565 17.1299 66.8321 16.2439 66.8321 15.4999V9.40132C66.8321 8.77339 66.6482 8.30891 66.3111 8.11537C65.9783 7.92613 65.4704 7.99494 64.9187 8.30891L32.0968 26.9143C31.7247 27.1293 31.3437 27.1422 31.0022 26.9573C30.6826 26.7766 30.4987 26.4283 30.4987 26.0068V20.7727L13.7156 43.1198V43.1284ZM31.0985 47.7303C31.0679 47.7303 31.0153 47.726 30.9803 47.7174L12.5509 44.1047C12.3495 44.066 12.1831 43.924 12.1174 43.7391C12.0517 43.5499 12.0649 43.3391 12.1831 43.18L30.6125 18.6567C30.7789 18.4545 31.0504 18.3685 31.2868 18.4459C31.5189 18.5277 31.694 18.7513 31.694 18.9964V25.7918L64.3144 7.29821C65.2514 6.76061 66.1797 6.6961 66.9022 7.10898C67.6203 7.51755 68.0275 8.33471 68.0275 9.40562V15.5042C68.0275 16.459 67.7034 17.5299 67.1167 18.5277C66.53 19.5298 65.7594 20.3383 64.9187 20.8114L32.0968 39.4125C31.8954 39.5329 31.6984 39.8727 31.6984 40.1049V47.141C31.6984 47.3174 31.6283 47.4808 31.4751 47.5926C31.3744 47.6787 31.243 47.726 31.1029 47.726L31.0985 47.7303Z" fill="#035BE8"/>
<path fill-rule="evenodd" clip-rule="evenodd" d="M25.4692 73.0409L58.2735 54.4355C58.6588 54.2119 58.9784 54.3924 58.9784 54.8354V61.8717L77.4079 37.3526L58.9784 33.7271V40.7374C58.9784 41.1804 58.6588 41.718 58.2735 41.9374L25.4692 60.5427C24.6985 60.9857 23.9892 61.7427 23.4682 62.6071C22.9646 63.4759 22.6406 64.4521 22.6406 65.338V71.4366C22.6406 72.3227 22.9646 72.942 23.4682 73.2302C23.9892 73.5183 24.6985 73.4796 25.4692 73.0409Z" fill="#EFF3FA"/>
<path fill-rule="evenodd" clip-rule="evenodd" d="M59.5704 34.4455V40.7376C59.5704 41.387 59.15 42.1225 58.5764 42.445L25.7765 61.0461C25.1197 61.4203 24.4629 62.0912 23.9944 62.8998C23.5215 63.7126 23.2544 64.5986 23.2544 65.3383V71.4369C23.2544 72.0648 23.4427 72.5336 23.7755 72.7229C24.1082 72.9164 24.6162 72.8476 25.1679 72.5336L57.9722 53.9326C58.3575 53.7175 58.7428 53.7046 59.0624 53.8809C59.404 54.0616 59.5704 54.4099 59.5704 54.8357V60.087L76.3666 37.7399L59.5704 34.4455ZM24.209 74.0002C23.8412 74.0002 23.4865 73.9099 23.1844 73.7379C22.4444 73.325 22.0547 72.5078 22.0547 71.4369V65.3383C22.0547 64.3836 22.3787 63.3127 22.9654 62.3149C23.539 61.3171 24.3272 60.5085 25.1635 60.0311L57.9678 41.4257C58.1867 41.3096 58.3881 40.9699 58.3881 40.7333V33.723C58.3881 33.5509 58.4538 33.3789 58.6071 33.2714C58.7384 33.1639 58.9267 33.1209 59.0931 33.151L77.5225 36.7723C77.7239 36.811 77.8903 36.9443 77.9604 37.1335C78.0304 37.3185 78.0129 37.5335 77.8816 37.6926L59.4696 62.2116C59.3033 62.4138 59.0318 62.5041 58.7953 62.4224C58.5458 62.345 58.3969 62.117 58.3969 61.8719V55.0551L25.7765 73.5486C25.2335 73.854 24.7037 74.0002 24.209 74.0002Z" fill="#035BE8"/>
</g>
</g>
<defs>
<clipPath id="clip0_9_47916">
<rect width="78" height="74" fill="white"/>
</clipPath>
</defs>
</svg>

<svg xmlns="http://www.w3.org/2000/svg" width="78" height="74" fill="none" viewBox="0 0 78 74"><g clip-path="url(#a)"><mask id="b" width="78" height="74" x="0" y="0" maskUnits="userSpaceOnUse" style="mask-type:luminance"><path fill="#fff" d="M78 0H0v74h78z"/></mask><g fill-rule="evenodd" clip-rule="evenodd" mask="url(#b)"><path fill="#035be8" d="M46.908 33.886c-.053.525-.267.903-.705 1.2l12.072 6.851c.433-.296.652-.683.705-1.2v-7.01l-12.072-6.851zm11.958 20.571-12.072-6.851a.8.8 0 0 1 .119.378v7.037l12.071 6.85v-7.035c-.022-.185-.022-.224-.118-.379"/><path fill="#035be8" d="m47.165 34.957 11.043 6.262c.1-.15.166-.314.188-.533v-6.62l-10.898-6.17v6.042a2.4 2.4 0 0 1-.333 1.02m11.113 7.565a.66.66 0 0 1-.303-.077l-12.071-6.851a.64.64 0 0 1-.302-.482c0-.198.1-.391.267-.503.284-.194.407-.413.433-.748v-6.985a.596.596 0 0 1 .89-.508L59.28 33.22a.56.56 0 0 1 .29.507v7.01c-.053.736-.373 1.29-.96 1.682a.63.63 0 0 1-.332.103m-10.78 12.159 10.898 6.172v-5.987l-10.898-6.18zm11.485 7.771a.66.66 0 0 1-.303-.077L46.61 55.524a.57.57 0 0 1-.302-.503v-7.037a.6.6 0 0 1 .07-.752c.183-.194.472-.267.705-.134l12.071 6.852a.47.47 0 0 1 .202.189c.184.254.201.404.219.624v7.109c0 .21-.101.4-.29.503a.6.6 0 0 1-.297.077z"/><path fill="#035be8" d="m77.411 37.349-12.076-6.847-18.425-3.626 12.072 6.851z"/><path fill="#035be8" d="m59.198 33.168 14.777 2.907-8.858-5.023-14.777-2.903zm18.21 4.765c-.035 0-.088-.004-.118-.009L58.86 34.3c-.07-.009-.122-.035-.188-.065L46.6 27.384a.58.58 0 0 1-.267-.71.62.62 0 0 1 .688-.37l18.43 3.625a.5.5 0 0 1 .166.065l12.089 6.85a.576.576 0 0 1 .254.71.595.595 0 0 1-.552.379M58.275 41.937l-12.071-6.851-32.805 18.601c-.928.572-1.427 1.166-2 2.064l12.071 6.852c.574-.908 1.073-1.493 2.001-2.065l32.804-18.605z"/><path fill="#035be8" d="m12.235 55.554 11.047 6.266a5.96 5.96 0 0 1 1.865-1.776l31.929-18.11L46.2 35.761 13.689 54.195a4.75 4.75 0 0 0-1.45 1.359zm11.231 7.638a.6.6 0 0 1-.285-.077l-12.089-6.851a.58.58 0 0 1-.201-.813c.573-.903 1.125-1.592 2.185-2.25l32.822-18.614a.6.6 0 0 1 .586-.004l12.09 6.851a.577.577 0 0 1 0 1.015l-32.8 18.601c-.859.53-1.297 1.063-1.783 1.867a.62.62 0 0 1-.52.28z"/><path fill="#035be8" d="m23.465 62.607-12.071-6.851c-.522.942-.771 1.664-.824 2.73v6.1c.031.7.118 1.17.64 1.668l12.089 6.851c-.539-.499-.622-.972-.657-1.668v-6.099c.057-1.07.324-1.793.828-2.727z"/><path fill="#035be8" d="M11.65 56.573a4.5 4.5 0 0 0-.486 1.944v6.072c.03.615.1.908.473 1.252l10.439 5.905c-.022-.094-.022-.185-.022-.275v-6.129a5.65 5.65 0 0 1 .643-2.503L11.65 56.577zm11.652 17.121a.56.56 0 0 1-.303-.077l-12.071-6.851c-.82-.753-.924-1.445-.96-2.146v-6.13c.07-1.25.386-2.076.907-3.005a.56.56 0 0 1 .355-.288.63.63 0 0 1 .473.06l12.071 6.847c.254.15.368.456.254.727-.486.89-.74 1.526-.775 2.537v6.073c.022.619.101.907.451 1.251a.564.564 0 0 1 .07.77.6.6 0 0 1-.473.232"/><path fill="#eff3fa" d="M52.54.959 19.734 19.564c-.254.104-.39.15-.587-.021l12.072 6.851c.219.168.35.125.587.022l32.8-18.606c.84-.434 1.326-.542 2.167-.069L54.527.77c-.74-.344-1.296-.164-1.988.189"/><path fill="#035be8" d="m20.648 19.724 10.877 6.163 32.79-18.584c.097-.043.185-.095.285-.134L54.228 1.277c-.386-.185-.727-.146-1.393.198zm10.846 7.367a.95.95 0 0 1-.64-.25l-11.786-6.666a1.2 1.2 0 0 1-.303-.18.574.574 0 0 1-.096-.788.58.58 0 0 1 .77-.176h.014L52.244.451s.013-.004.013-.012c.688-.344 1.493-.676 2.518-.198l12.312 6.993a.58.58 0 0 1 .22.8.6.6 0 0 1-.806.215h-.022c-.587-.34-.858-.293-1.599.082L32.094 26.923c-.154.069-.355.168-.605.168z"/><path fill="#eff3fa" d="m31.103 19-12.076-6.846L.602 36.673l12.071 6.851z"/><path fill="#035be8" d="m1.478 36.5 11.03 6.259 17.724-23.573-11.047-6.262zm11.196 7.613a.6.6 0 0 1-.298-.081L.304 37.18a.57.57 0 0 1-.289-.382.6.6 0 0 1 .101-.47l18.425-24.522a.6.6 0 0 1 .775-.16l12.09 6.852a.64.64 0 0 1 .288.387.6.6 0 0 1-.122.468l-18.43 24.52a.58.58 0 0 1-.473.236z"/><path fill="#fff" d="m31.815 38.914 32.8-18.61c.775-.439 1.48-1.2 2.001-2.064.504-.873.819-1.845.819-2.731V9.41c0-1.763-1.279-2.477-2.824-1.6l-32.8 18.606c-.386.219-.71.038-.71-.4V19l-18.43 24.523 18.43 3.617v-7.036c0-.439.324-.976.71-1.196z"/><path fill="#035be8" d="m13.716 43.128 16.783 3.295v-6.318c0-.645.438-1.38 1.007-1.703l32.808-18.606c.653-.374 1.31-1.045 1.778-1.858.473-.808.74-1.694.74-2.438V9.4c0-.628-.184-1.092-.52-1.286-.334-.189-.842-.12-1.393.194L32.097 26.914c-.372.215-.753.228-1.095.043-.32-.18-.503-.529-.503-.95v-5.234L13.716 43.12zm17.383 4.602a.6.6 0 0 1-.119-.013l-18.43-3.612a.57.57 0 0 1-.433-.366.6.6 0 0 1 .066-.559l18.43-24.523a.63.63 0 0 1 .674-.211.6.6 0 0 1 .407.55v6.796l32.62-18.494c.937-.537 1.866-.602 2.588-.189.718.409 1.126 1.226 1.126 2.297v6.098c0 .955-.325 2.026-.911 3.024-.587 1.002-1.358 1.81-2.198 2.283L32.097 39.413c-.202.12-.399.46-.399.692v7.036a.54.54 0 0 1-.223.452.57.57 0 0 1-.372.133z"/><path fill="#eff3fa" d="m25.47 73.04 32.804-18.605c.385-.223.704-.043.704.4v7.037l18.43-24.52-18.43-3.625v7.01c0 .443-.32.981-.705 1.2L25.47 60.543c-.77.443-1.48 1.2-2 2.064-.504.869-.828 1.845-.828 2.731v6.099c0 .886.324 1.505.827 1.793.521.288 1.23.25 2.001-.19"/><path fill="#035be8" d="M59.57 34.446v6.292c0 .649-.42 1.385-.994 1.707l-32.8 18.601c-.656.374-1.313 1.045-1.782 1.854-.473.813-.74 1.699-.74 2.438v6.099c0 .628.189 1.097.521 1.286.333.193.841.125 1.393-.19l32.804-18.6c.386-.215.77-.228 1.09-.052.342.18.508.529.508.955v5.251L76.367 37.74zM24.21 74c-.368 0-.723-.09-1.025-.262-.74-.413-1.13-1.23-1.13-2.301v-6.099c0-.954.325-2.025.911-3.023.574-.998 1.362-1.806 2.198-2.284l32.805-18.605c.219-.116.42-.456.42-.693v-7.01c0-.172.066-.344.22-.452a.62.62 0 0 1 .485-.12l18.43 3.621a.57.57 0 0 1 .437.361c.07.185.053.4-.078.56L59.47 62.212a.625.625 0 0 1-.675.21.57.57 0 0 1-.398-.55v-6.817L25.777 73.55c-.544.305-1.073.451-1.568.451"/></g></g><defs><clipPath id="a"><path fill="#fff" d="M0 0h78v74H0z"/></clipPath></defs></svg>
